dist/svgs/move-task.svg

<svg xmlns="http://www.w3.org/2000/svg" viewBox="0 0 512 512"><path d="M60 439h181v60H60q-25 0-42.5-17.5T0 439V77q0-25 17.5-42.5T60 17h362q25 0 42.5 17.5T482 77v121h-60V77L60 78v361zm341 30v-58H301v-95l100-1v-57l111 105z"/></svg>

<?xml version="1.0" encoding="UTF-8" standalone="no"?><svg   xmlns:svg="http://www.w3.org/2000/svg"   xmlns="http://www.w3.org/2000/svg"   version="1.1"   width="512"   height="512"   viewBox="0 0 512 512">  <path     d="M60 439H241V499H60Q35 499 17.5 481.5T0 439V77Q0 52 17.5 34.5T60 17H422Q447 17 464.5 34.5T482 77V198H422V77L60 78V439zM401 469V411H301V316L401 315V258L512 363z"     id="move-task" /></svg>T177 90Q189 98 189 111V382H314V288H354V301zM506 218Q520 227 506 237Q482 255 458 272.5T409 307Q404 312 397 309Q391 307 391 298V259V253H341H295Q285 252 278 246T270 230Q269 219 275 211.5T292 203Q300 202 307.5 202H323H385H391V195V157Q391 154 392 151T397 146Q402 142 410 148Q434 165 458 182.5T506 218z"     id="move-task" /></svg>
